X:1
T:O Sacrum Convivium
T:O Sacrum Convivium
T:Giovanni Giorgi
T:© 2008 Paul R Marchesano May be freely copied for nonprofit use
T:© 2008 Paul R Marchesano May be freely copied for nonprofit use
T:© 2008 Paul R Marchesano May be freely copied for nonprofit use
T:© 2008 Paul R Marchesano May be freely copied for nonprofit use
T:© 2008 Paul R Marchesano May be freely copied for nonprofit use
T:© 2008 Paul R Marchesano May be freely copied for nonprofit use
T:© 2008 Paul R Marchesano May be freely copied for nonprofit use
T:© 2008 Paul R Marchesano May be freely copied for nonprofit use
T:© 2008 Paul R Marchesano May be freely copied for nonprofit use
T:© 2008 Paul R Marchesano May be freely copied for nonprofit use
C:Giovanni Giorgi
Z:© 2008 Paul R Marchesano May be freely copied for nonprofit use
%%score [ 1 2 3 4 ]
L:1/8
Q:1/4=116
M:2/2
K:C
V:1 treble nm="Soprano" snm="S"
V:2 treble nm="Alto" snm="A"
V:3 treble-8 nm="Tenor" snm="T"
V:4 bass nm="Bass" snm="B"
V:1
 G8 | A8 | ^G4 z4 | G8 | c8 | B8 | z4 z2 A2 | c4 c2 c2 | B2 c4 B2 | c4 z2 A2- | A2 ^G2 A2 B2 | %11
w: O|sa-|crum|O|sa-|crum|O|sa- crum con-|vi- * vi-|um, in|_ quo Chri- stus|
 c3 c B4 | c2 d4 c2- | c2 B4 A2- | A2 G4 ^F2 | G8 | B8 | G8 | ^F4 z4 | c8 | A8 | ^G2 E2 B4- | %22
w: su- mi- tur,|in quo Chri-|* stus su-|* * mi-|tur,|O|sa-|crum|O|sa-|crum O sa-|
 B2 A4 A2 | A2 A2 ^G2 A2- | A2 ^G2 A4 | z2 G4 ^F2 | G2 A2 B3 B | A4 z2 A2- | A2 G2 ABcd | %29
w: * crum O|sa- crum con- vi-|* vi- um,|in quo|Chri- stus su- mi-|tur, in|_ quo Chri- * * *|
 e3 d c2 BA | G2 A2 B2 B2- | B2 A2 B2 c2 | A3 A G4- | G4 z4 | z2 G2 c3 c | c2 A2 d3 c | %36
w: * * * stus _|su- mi- tur, in|_ quo Chri- stus|su- mi- tur,|_|re- co- li-|tur me- mo- ri-|
 B2 B2 c3 B | A2 A2 AGFE | D4 z4 | z2 d4 c2 | c2 _B_A G4- | G2 F_E F4 | G8 | z4 d4- | d2 cB c4- | %45
w: a, re- co- li-|tur me- mo- * ri- *|a,|pas- si-|o- * * *|* nis _ e-|jus,|pas-|* si- * o-|
 c2 _B2 A4 | G8 ||[M:3/4] G4 B2 | c4 B2 | c3 c c2 | c4 _B2 | A2 G4 | A3 A A2 | z6 | G3 B AG | %55
w: * nis e-|jus,|mens im-|ple- tur|gra- ti- a|mens im-|ple- tur|gra- ti- a||et fu- tu- re|
 c3 B cA | B3 d cB | A4 A2 | G4 z2 | c3 e dc | f3 e fd | e3 d ec | d4 d2 | G4 z2 | z6 | c4 c2 | %66
w: glo- * * *||* ri-|ae|et fu- tu- re|glo- * * *||* ri-|ae||no- bis|
 B4 B2 | A6 | ^G4 z2 | c4 B2 | A2 B4 | c3 c c2 | c4 B2 | A4 ^G2 | A4 A2 | ^G4 z2 | A3 c BA | %77
w: pi- gnus|da-|tur|mens im-|ple- tur|gra- ti- a|_ _||||et fu- tu- re|
 d4 c2 | BA G4 | z6 | G3 B AG | c6- | c6- | cB cd ec | d3 c dB | c3 B cA | B3 A BG | A3 G AF | %88
w: glo- *|ri- * ae||no- bis pi- gnus|da-|||||||
 G2 c4- | c2 B4 | c4 z2 | G3 G G2 | A2 G4 | G6 |] %94
w: ||tur|no- bis pi-|gnus da-|tur|
V:2
 E8- | E2 DC D4 | E4 z4 | E4 G4- | G2 ^FE F4 | G4 z2 D2 | F6 ED | E6 G2 | G6 G2 | G4 z4 | z8 | %11
w: O|_ _ _ sa-|crum|O sa-||crum O|sa- * *|crum con-|vi- vi-|um,||
 z4 z2 E2- | E2 D2 E2 ^F2 | G3 F E4 | ^FE D4 D2 | D8 | D8 | E8 | A,4 z4 | A4 E4- | E2 DC D4 | %21
w: in|_ quo Chri- stus|su- * *|* * * mi-|tur,|O|sa-|crum|O sa-||
 E4 z2 E2 | C4 F4- | F2 D2 E4- | E2 E2 E4 | z8 | z8 | z2 D4 C2 | D2 E2 F3 F | E2 E4 D2 | %30
w: crum O|sa- crum|_ con- vi-|* vi- um,|||in quo|Chri- stus su- mi-|tur, in quo|
 E2 ^F2 G3 =F | E4 z2 E2- | E2 D2 E2 FE | D2 E2 D3 D | E4 z2 G2 | A3 A AGFE | D3 D G,2 G2- | %37
w: Chri- stus su- mi-|tur, in|_ quo Chri- stus _|su- * * mi-|tur, re-|co- li- tur _ me- *|mo- ri- a, pas-|
 G2 F2 F4- | F2 _ED E4 | D2 G4 G2 | G6 F2 | _E4 C2 F2- | F2 _E2 D2 G2- | G2 ^FE F4 | G2 G4 AG | %45
w: * si- o-||nis pas- si-|o- *|* nis pas-|* si- o- *||nis pas- si- *|
 ^FF G4 F2 | G8 ||[M:3/4] E4 F2 | G2 A2 D2 | E3 E E2 | F4 E2 | F4 E2 | C3 C C2 | C3 E DC | %54
w: o- nis e- *|jus,|mens im-|ple- * tur|gra- ti- a|mens im-|ple- tur|gra- ti- a|et fu- tu- re|
 G2 D2 G2- | G2 ^F4 | G4 G2 | ^F4 z2 | z6 | z6 | z6 | G3 F EG | F3 E FD | E4 A2- | A2 GF G2- | %65
w: glo- * *||* ri-|ae||||no- bis pi- gnus|da- * * *|||
 G2 FE F2- | F2 ED E2- | E2 DC D2 | E4 z2 | E4 D2 | E2 ^F2 ^G2 | A3 E E2 | A4 ^G2 | E2 F2 E2 | %74
w: |||tur|mens im-|ple- * tur|gra- ti- a|mens im-|ple- * tur|
 E3 E E2 | E3 ^G ^FE | A4 G2 | FE D4- | D4 z2 | C3 E DC | G4 F2 | E2 G4 | A3 F GA | G6- | G6- | %85
w: gra- ti- a|et fu- tu- re|glo- *|ri- * ae|_|no- bis pi- gnus|da- *|||||
 G2 F4- | F2 E4- | E2 D4 | CD EF GA | G6 | E4 z2 | E3 E E2 | D2 D4 | E6 |] %94
w: |||||tur|no- bis pi-|gnus da-|tur|
V:3
 c4 c4- | c4 A4 | B4 z4 | c4 e4- | e4 c4 | d8 | z2 d2 A4 | G6 e2 | d2 e2 d3 d | c2 e4 c2 | %10
w: O sa-||crum|O sa-||crum|O sa-|crum con-|vi- * * vi-|um, in quo|
 d2 e2 f3 f | e4 d2 e2 | c2 G2 c4 | d4 c4- | c2 B2 A3 A | B8 | G4 d4- | d2 ^cB c4 | d4 z4 | %19
w: Chri- stus su- mi-|tur, in quo|Chri- stus su-||* * * mi-|tur,|O sa-||crum|
 e4 c4- | c4 A4 | B4 z2 ^G2 | A4 A2 d2 | d2 d4 c2 | B3 B A2 c2- | c2 B2 c2 d2 | e3 e d4 | %27
w: O sa-||crum O|sa- crum O|sa- crum con-|vi- vi- um, in|_ quo Chri- stus|su- mi- tur,|
 c4 B2 c2 | G3 G c2 c2- | c2 B2 c2 d2- | d2 c2 d2 e2 | c3 B/A/ G4 | z2 d4 c2 | B2 c4 B2 | %34
w: Chri- * stus|su- mi- tur, in|_ quo Chri- *|* * * stus|su- mi- * tur,|Chri- stus|su- * mi-|
 c2 c2 e3 d | c4 z4 | z2 G2 c3 c | c2 A2 d3 c | B2 d4 c2 | f2 d2 _e4 | d3 c B4 | c8 | B2 c4 _B2 | %43
w: tur, re- co- li-|tur|re- co- li-|tur me- mo- ri-|a, pas- si-|o- nis e-|||jus, pas- si-|
 A6 d2 | _B4 G4 | A2 _Bc d3 c | B8 ||[M:3/4] c2 e2 d2 | c4 G2 | G3 G G2 | F4 G2 | A2 _B2 c2 | %52
w: o- *|* nis|e- * * * *|jus,|mens _ im-|ple- tur|gra- ti- a|mens im-|ple- * tur|
 F3 F F2 | z6 | z6 | z6 | G3 B AG | d4 c2 | B3 c d2 | G2 c4- | c2 B4 | c4 z2 | z6 | c3 e dc | %64
w: gra- ti- a||||et fu- tu- re|glo- *|||* ri-|ae||no- bis pi- gnus|
 d3 c dB | c3 B cA | d2 G4 | A6 | B4 z2 | A4 B2 | c2 d2 e2 | A3 A A2 | e4 d2 | c2 B2 z2 | A3 c BA | %75
w: da- * * *||||tur|mens im-|ple- * tur|gra- ti- a|mens im-|ple- tur|et fu- tu- re|
 e4 d2 | cB A4- | A4 z2 | G3 B AG | c6 | B4 z2 | z2 c2 e2 | c2 f4 | e3 d c2 | G4 z2 | z2 c2 f2 | %86
w: glo- *|ri- * ae|_|no- bis pi- gnus|_||no- bis|pi- gnus|da- * *|tur|no- bis|
 d2 B2 e2 | c2 A2 d2- | d2 c2 e2 | d6 | c4 z2 | c3 c c2 | c2 c2 B2 | c6 |] %94
w: pi- * gnus|da- * *|||tur|no- bis pi-|gnus da- *|tur|
V:4
 C,8 | F,8 | E,4 z4 | C8 | A,8 | G,8 | z2 D,2 F,4 | C,6 C,2 | G,6 G,2 | C,4 z4 | z8 | z2 A,4 G,2 | %12
w: O|sa-|crum|O|sa-|crum|O sa-|crum con-|vi- vi-|um,||in quo|
 A,2 B,2 C3 C | G,4 A,2 A,2 | D,6 D,2 | G,,8 | G,8 | E,8 | D,4 z4 | A,8 | F,8 | E,8 | z2 A,2 D,4 | %23
w: Chri- stus su- mi-|tur, Chri- stus|su- mi-|tur,|O|sa-|crum|O|sa-|crum|O sa-|
 F,2 F,2 E,4- | E,2 E,2 A,,4 | z8 | z4 z2 G,2- | G,2 ^F,2 G,2 A,2 | B,3 B, A,2 A,2- | %29
w: crum con- vi-|* vi- um,||in|_ quo Chri- stus|su- mi- tur, in|
 A,2 G,2 A,2 B,2 | C3 C G,4 | A,4 E,4 | F,4 C,4 | G,6 G,2 | C,4 z2 C,2 | F,3 F, F,2 D,2 | %36
w: _ quo Chri- stus|su- mi- tur,|in quo|Chri- stus|su- mi-|tur, re-|co- li- tur me-|
 G,3 F, E,2 E,2 | F,3 E, D,2 D,2 | G,3 G, C,2 C2- | C2 B,2 C4 | G,8 | _A,6 A,2 | G,8 | D,8 | _E,8 | %45
w: mo- ri- a, re-|co- li- tur me-|mo- ri- a, pas-|* si- o-|nis|pas- si-|o-|nis|e-|
 D,8 | G,,8 ||[M:3/4] C,4 D,2 | E,2 F,2 G,2 | C,3 C, C,2 | z6 | z6 | F,3 A, G,F, | C6 | B,6 | %55
w: |jus,|mens im-|ple- * tur|gra- ti- a|||et fu- tu- re|glo-||
 A,4 A,2 | G,4 z2 | D,3 ^F, E,D, | G,4 F,2 | E,6 | D,4 D,2 | C,2 C4- | C2 B,4 | C4 z2 | %64
w: * ri-|ae|et fu- tu- re|glo- *||* ri-|ae glo-|* ri-|ae|
 B,3 A, B,G, | A,3 G, A,F, | G,3 F, G,E, | F,6 | E,4 z2 | z6 | z6 | z6 | A,,4 B,,2 | C,2 D,2 E,2 | %74
w: no- bis pi- gnus|da- * * *|||tur||||mens im-|ple- * tur|
 A,,3 A,, A,,2 | z6 | z6 | D,3 F, E,D, | G,4 F,2 | E,2 A,4 | G,4 z2 | C,3 E, D,C, | F,3 A, G,F, | %83
w: gra- ti- a|||no- bis pi- gnus|da- *||tur|no- bis pi- gnus|da- * * *|
 C3 B, CA, | B,3 A, B,G, | A,3 G, A,F, | G,3 F, G,E, | F,3 E, F,D, | E,3 D, E,C, | G,6 | C,4 z2 | %91
w: |||||||tur|
 C,3 D, E,2 | F,2 G,4 | C,6 |] %94
w: no- bis pi-|gnus da-|tur|

